X: 1
T: Top o' the List
C: Paul Milde 2004
Z: 2006 John Chambers <jc@trillian.mit.edu>
M: C|
L: 1/8
K: G
d2 \
| g2ag f2g2 | e2d2 B2c2 | d2ed ^c2d2 | c2B2 A2G2 \
| d2cB A2G2 | c2B2 A2G2 | A2FG A2F2 | D4 d4 |
| g2fg a2f2 | b2a2 g2d2 | e3f g2a2 | d3e d2c2 \
| B2cB A2B2 | d2c2 B2A2 | G2FG B2A2 | G6 |]
D2 \
| B,2D2 G2D2 | FGFA G2D2 | G2B2 A2G2 | d4 e2f2 \
| g3f e2d2 | e2d2 G2A2 | B2Bc d2B2 | A4 D4 |
| B,2D2 GAGF | G2A2 B4 | BcBA B2c2 | d4 e2f2 \
| g3f e2d2 | e2d2 c2B2 | B2AB c2A2 | G6 |]
